X:4991
T:Famous Ballymote
M:C
L:1/8
K:D Mixolydian
E|FDAD FDAB|cBcG EFGE|FDAD FDAB|cBcG EDD:|!
E|FDFA d3B|cBcG EFGE|FDFA d2ed|cAGE EDD:|!


